packages/ui-icons/svg/Line/educators.svg

<svg viewBox="0 0 1920 1920" version="1.1" xmlns="http://www.w3.org/2000/svg">
    <path d="M640.376471,790.588235 C679.228235,790.588235 696.056471,806.174118 723.952941,831.924706 C756.818824,862.08 801.769412,903.529412 885.458824,903.529412 C945.769412,903.529412 985.524706,881.505882 1015.34118,857.901176 C1009.46824,1008.45176 886.136471,1129.41176 734.117647,1129.41176 C594.635294,1129.41176 479.096471,1027.42588 456.508235,894.268235 C501.910588,880.602353 532.178824,853.835294 555.444706,832.263529 C583.68,806.287059 600.734118,790.588235 640.376471,790.588235 Z M1920,-0.0112941176 L1920,1129.40047 L1581.17647,1129.40047 L1581.17647,1016.45929 L1807.05882,1016.45929 L1807.05882,112.929882 L112.941176,112.929882 L112.941176,1016.45929 L225.882353,1016.45929 L225.882353,1129.40047 L0,1129.40047 L0,-0.0112941176 L1920,-0.0112941176 Z M734.117647,451.764706 C882.522353,451.764706 1003.25647,567.303529 1014.32471,712.997647 C996.931765,724.630588 981.571765,737.167059 968.357647,749.364706 C940.574118,775.115294 923.971765,790.588235 885.458824,790.588235 C845.816471,790.588235 828.762353,774.889412 800.527059,748.912941 C768,718.870588 723.275294,677.647059 640.376471,677.647059 C556.687059,677.647059 511.736471,719.096471 478.870588,749.251765 C468.931765,758.4 460.348235,765.741176 451.764706,772.065882 L451.764706,734.117647 C451.764706,578.484706 578.371765,451.764706 734.117647,451.764706 Z M1471.84941,714.24 L1161.71294,1541.19529 C944.301176,1563.78353 679.115294,1565.81647 523.143529,1508.89412 L484.291765,1615.05882 C716.950588,1699.99059 1099.14353,1663.39765 1231.62353,1654.81412 L1238.73882,1657.52471 L1239.98118,1654.24941 C1240.65882,1654.24941 1241.90118,1654.13647 1242.69176,1654.13647 L1210.84235,1741.21412 C1206.43765,1753.52471 1196.27294,1762.33412 1183.17176,1765.27059 C1065.71294,1792.26353 906.127059,1807.05882 734.117647,1807.05882 C562.334118,1807.05882 387.501176,1774.41882 225.882353,1712.41412 L225.882353,1459.2 C225.882353,1383.52941 276.48,1316.44235 349.101176,1295.77412 C472.997647,1260.42353 600.508235,1242.01412 731.294118,1242.12706 C732.197647,1242.12706 733.101176,1242.35294 734.117647,1242.35294 C734.682353,1242.35294 735.134118,1242.24 735.698824,1242.24 C861.967059,1242.69176 991.171765,1260.19765 1123.2,1296.90353 L1160.24471,1190.28706 L1145.56235,1185.65647 C1092.02824,1170.86118 1037.81647,1160.01882 983.717647,1150.98353 C1071.81176,1078.47529 1129.41176,969.938824 1129.41176,847.058824 L1129.41176,734.117647 C1129.41176,516.141176 952.094118,338.823529 734.117647,338.823529 C516.141176,338.823529 338.823529,516.141176 338.823529,734.117647 L338.823529,847.058824 C338.823529,969.712941 396.197647,1078.13647 484.178824,1150.75765 C428.16,1160.01882 372.592941,1171.65176 318.155294,1187.12471 C197.308235,1221.45882 112.941176,1333.38353 112.941176,1459.2 L112.941176,1788.19765 L147.84,1802.76706 C332.385882,1879.45412 535.228235,1920 734.117647,1920 C914.484706,1920 1082.88,1904.18824 1208.35765,1875.38824 C1258.72941,1863.75529 1299.27529,1828.29176 1316.89412,1780.06588 L1348.74353,1692.98824 C1363.08706,1653.68471 1356.31059,1610.76706 1330.33412,1578.24 C1317.34588,1561.86353 1300.74353,1549.55294 1282.10824,1541.98588 L1577.56235,753.995294 L1471.84941,714.24 Z" stroke="none" stroke-width="1" fill-rule="evenodd"/>
</svg>

<svg viewBox="0 0 1920 1920" xmlns="http://www.w3.org/2000/svg">
    <path d="M640.376 790.588c38.852 0 55.68 15.586 83.577 41.337 32.866 30.155 77.816 71.604 161.506 71.604 60.31 0 100.066-22.023 129.882-45.628-5.873 150.55-129.205 271.51-281.223 271.51-139.483 0-255.022-101.985-277.61-235.143 45.403-13.666 75.67-40.433 98.937-62.004 28.235-25.977 45.29-41.676 84.931-41.676ZM1920-.012V1129.4h-338.824v-112.94h225.883V112.93H112.94v903.53h112.941v112.94H0V-.01h1920ZM734.118 451.766c148.404 0 269.138 115.539 280.207 261.233-17.393 11.633-32.753 24.17-45.967 36.367-27.784 25.75-44.386 41.223-82.9 41.223-39.642 0-56.696-15.699-84.93-41.675-32.528-30.042-77.253-71.266-160.152-71.266-83.689 0-128.64 41.45-161.505 71.605-9.94 9.148-18.523 16.49-27.106 22.814v-37.948c0-155.633 126.607-282.353 282.353-282.353Zm737.731 262.475-310.136 826.955c-217.412 22.589-482.598 24.621-638.57-32.3l-38.851 106.164c232.659 84.932 614.852 48.339 747.332 39.755l7.115 2.71 1.242-3.275c.678 0 1.92-.113 2.71-.113l-31.849 87.078c-4.404 12.31-14.57 21.12-27.67 24.057-117.46 26.993-277.045 41.788-449.054 41.788-171.784 0-346.617-32.64-508.236-94.645V1459.2c0-75.67 50.598-142.758 123.22-163.426 123.896-35.35 251.406-53.76 382.192-53.647.904 0 1.807.226 2.824.226.564 0 1.016-.113 1.58-.113 126.27.452 255.474 17.958 387.502 54.664l37.045-106.617-14.683-4.63c-53.534-14.796-107.746-25.638-161.844-34.673 88.094-72.509 145.694-181.045 145.694-303.925V734.118c0-217.977-177.318-395.294-395.294-395.294-217.977 0-395.294 177.317-395.294 395.294v112.94c0 122.655 57.374 231.078 145.355 303.7-56.019 9.26-111.586 20.894-166.024 36.367-120.847 34.334-205.214 146.259-205.214 272.075v328.998l34.899 14.57C332.386 1879.453 535.228 1920 734.118 1920c180.367 0 348.762-15.812 474.24-44.612 50.371-11.633 90.917-47.096 108.536-95.322l31.85-87.078c14.343-39.303 7.567-82.22-18.41-114.748-12.988-16.376-29.59-28.687-48.226-36.254l295.454-787.99-105.713-39.756Z" fill-rule="evenodd"/>
</svg>
